X:1
T: The Duchess of Bedford's Strathspey
C:William Marshall
R:Strathspey
Q: 128
K:Bb
M:4/4
L:1/16
|:B,B3 B3c B4 F2B2|cc3 c3d e4 F2e2|d2f2 g2f2 e2d2 c2B2|A3B c3d cBAG F2E2|
DB3 B3c B4 F2B2|cc3 c3d e4 F2e2|d2f2 g2f2 e2d2 c2B2|F3B ABcA B4 B2e2|
defg f2f2 b4 f2a2|bagf gfed edcB c3d|cdef g3f e2d2 c2B2|A2B2 c3d cBAG F3E|
D2B2 F2B2 F2c2 A2c2|F2d2 B2d2 E2g2 e2g2|dfga b3f gfed edcB|F3B ABcA B4 B2:|
